svg/fluentui-system-icons/ic_fluent_people_sync_16_regular.svg

<svg width="16" height="16" viewBox="0 0 16 16" fill="none" xmlns="http://www.w3.org/2000/svg">
<path d="M4 4.5C4 3.67157 4.67157 3 5.5 3C6.32843 3 7 3.67157 7 4.5C7 5.32843 6.32843 6 5.5 6C4.67157 6 4 5.32843 4 4.5ZM5.5 2C4.11929 2 3 3.11929 3 4.5C3 5.88071 4.11929 7 5.5 7C6.88071 7 8 5.88071 8 4.5C8 3.11929 6.88071 2 5.5 2ZM10.5 5C10.5 4.44772 10.9477 4 11.5 4C12.0523 4 12.5 4.44772 12.5 5C12.5 5.55228 12.0523 6 11.5 6C10.9477 6 10.5 5.55228 10.5 5ZM9.9225 6.22957C10.4222 6.08022 10.9517 6 11.5 6C12.0483 6 12.5778 6.08022 13.0775 6.22957C13.3423 5.89039 13.5 5.46362 13.5 5C13.5 3.89543 12.6046 3 11.5 3C10.3954 3 9.5 3.89543 9.5 5C9.5 5.46362 9.65775 5.89039 9.9225 6.22957ZM3 8H7.25716C7.00353 8.30711 6.78261 8.64222 6.59971 9H3C2.72386 9 2.5 9.22386 2.5 9.5V9.58971L2.50027 9.59656C2.50071 9.60562 2.50175 9.62229 2.50416 9.64547C2.50899 9.69201 2.51921 9.76366 2.54061 9.85193C2.58359 10.0292 2.66982 10.2662 2.84187 10.5028C3.16787 10.951 3.87788 11.5 5.5 11.5C5.67735 11.5 5.8438 11.4934 6.00003 11.4812L6 11.5C6 11.8335 6.02969 12.1601 6.08656 12.4772C5.90076 12.4922 5.70539 12.5 5.5 12.5C3.62212 12.5 2.58213 11.8458 2.03313 11.091C1.76768 10.726 1.63516 10.3614 1.56876 10.0875C1.53547 9.95021 1.51835 9.83386 1.50951 9.74881C1.50509 9.7062 1.50271 9.67118 1.50144 9.64499C1.50081 9.63188 1.50045 9.62096 1.50024 9.61238L1.50005 9.60127L1.50001 9.59705L1.5 9.59529L1.5 9.59375V9.5C1.5 8.67157 2.17157 8 3 8ZM7 11.5C7 13.9853 9.01472 16 11.5 16C13.9853 16 16 13.9853 16 11.5C16 9.01472 13.9853 7 11.5 7C9.01472 7 7 9.01472 7 11.5ZM13.5 8.5C13.7761 8.5 14 8.72386 14 9V10.5C14 10.7761 13.7761 11 13.5 11H12C11.7239 11 11.5 10.7761 11.5 10.5C11.5 10.2239 11.7239 10 12 10H12.4682C12.4179 9.97215 12.3663 9.94644 12.3135 9.92296C12.0682 9.81372 11.8034 9.755 11.535 9.75031C11.2665 9.74561 10.9998 9.79503 10.7508 9.89562C10.5018 9.99621 10.2756 10.1459 10.0857 10.3358C9.89048 10.531 9.5739 10.531 9.37864 10.3358C9.18338 10.1405 9.18338 9.82394 9.37864 9.62868C9.66346 9.34386 10.0027 9.11931 10.3762 8.96842C10.7497 8.81754 11.1497 8.74341 11.5524 8.75046C11.9552 8.75751 12.3524 8.84558 12.7203 9.00944C12.8162 9.05211 12.9095 9.0997 13 9.15195V9C13 8.72386 13.2239 8.5 13.5 8.5ZM12.6238 14.0316C12.2503 14.1825 11.8503 14.2566 11.4476 14.2495C11.0448 14.2425 10.6476 14.1544 10.2797 13.9906C10.1838 13.9479 10.0905 13.9003 10 13.8481V14C10 14.2761 9.77614 14.5 9.5 14.5C9.22386 14.5 9 14.2761 9 14V12.5C9 12.2239 9.22386 12 9.5 12H11C11.2761 12 11.5 12.2239 11.5 12.5C11.5 12.7761 11.2761 13 11 13H10.5318C10.5821 13.0278 10.6337 13.0536 10.6865 13.077C10.9318 13.1863 11.1966 13.245 11.465 13.2497C11.7335 13.2544 12.0002 13.205 12.2492 13.1044C12.4982 13.0038 12.7244 12.8541 12.9143 12.6642C13.1095 12.469 13.4261 12.469 13.6214 12.6642C13.8166 12.8595 13.8166 13.1761 13.6214 13.3713C13.3365 13.6561 12.9973 13.8807 12.6238 14.0316Z" fill="#212121"/>
</svg>

<svg xmlns="http://www.w3.org/2000/svg" width="16" height="16"><path d="M4 4.5a1.5 1.5 0 1 1 3 0 1.5 1.5 0 0 1-3 0ZM5.5 2a2.5 2.5 0 1 0 0 5 2.5 2.5 0 0 0 0-5Zm5 3a1 1 0 1 1 2 0 1 1 0 0 1-2 0Zm-.578 1.23A5.5 5.5 0 0 1 11.5 6a5.5 5.5 0 0 1 1.578.23 2 2 0 1 0-3.155 0ZM3 8h4.257A5.508 5.508 0 0 0 6.6 9H3a.5.5 0 0 0-.5.5v.097l.004.048a1.853 1.853 0 0 0 .338.857c.326.449 1.036.998 2.658.998.177 0 .344-.007.5-.019v.019c0 .334.03.66.087.977a7.291 7.291 0 0 1-.587.023c-1.878 0-2.918-.654-3.467-1.409a2.853 2.853 0 0 1-.523-1.342 1.908 1.908 0 0 1-.01-.137V9.5A1.5 1.5 0 0 1 3 8Zm4 3.5a4.5 4.5 0 1 0 9 0 4.5 4.5 0 0 0-9 0Zm6.5-3a.5.5 0 0 1 .5.5v1.5a.5.5 0 0 1-.5.5H12a.5.5 0 0 1 0-1h.468a1.982 1.982 0 0 0-.933-.25 2 2 0 0 0-1.45.586.5.5 0 0 1-.706-.707A3 3 0 0 1 13 9.152V9a.5.5 0 0 1 .5-.5Zm-.876 5.532A2.999 2.999 0 0 1 10 13.848V14a.5.5 0 0 1-1 0v-1.5a.5.5 0 0 1 .5-.5H11a.5.5 0 0 1 0 1h-.468a1.999 1.999 0 0 0 2.383-.336.5.5 0 0 1 .706.707c-.285.285-.624.51-.997.66Z"/></svg>
